icons/vk.svg

<svg width="53" height="53" viewBox="0 0 53 53" fill="none" xmlns="http://www.w3.org/2000/svg">
<path d="M0 25.44C0 13.4443 0 7.45533 3.71 3.71C7.473 0 13.462 0 25.44 0H27.56C39.5557 0 45.5447 0 49.29 3.71C53 7.473 53 13.462 53 25.44V27.56C53 39.5557 53 45.5447 49.29 49.29C45.527 53 39.538 53 27.56 53H25.44C13.4443 53 7.45533 53 3.71 49.29C0 45.527 0 39.538 0 27.56V25.44Z" fill="#0077FF"/>
<path d="M28.1961 38.1778C16.1121 38.1778 9.22212 29.9098 8.93945 16.1298H15.0168C15.2111 26.2351 19.6631 30.5105 23.1965 31.3938V16.1298H28.9028V24.8395C32.3831 24.4685 36.0578 20.4935 37.2945 16.1121H42.9831C42.5193 18.3801 41.5927 20.5281 40.2613 22.4218C38.9299 24.3156 37.2223 25.9144 35.2451 27.1185C37.4516 28.2167 39.4001 29.7701 40.9623 31.6764C42.5245 33.5827 43.6649 35.7986 44.3081 38.1778H38.0365C36.6938 33.9908 33.3371 30.7401 28.9028 30.2985V38.1778H28.2138H28.1961Z" fill="#F0F0F0"/>
</svg>

<svg width="53" height="53" fill="none" xmlns="http://www.w3.org/2000/svg"><path d="M0 25.44C0 13.444 0 7.455 3.71 3.71 7.473 0 13.462 0 25.44 0h2.12c11.996 0 17.985 0 21.73 3.71C53 7.473 53 13.462 53 25.44v2.12c0 11.996 0 17.985-3.71 21.73C45.527 53 39.538 53 27.56 53h-2.12c-11.996 0-17.985 0-21.73-3.71C0 45.527 0 39.538 0 27.56v-2.12Z" fill="#07F"/><path d="M28.196 38.178c-12.084 0-18.974-8.268-19.257-22.048h6.078c.194 10.105 4.646 14.38 8.18 15.264V16.13h5.706v8.71c3.48-.372 7.155-4.346 8.392-8.728h5.688a16.835 16.835 0 0 1-7.738 11.007 17.436 17.436 0 0 1 9.063 11.059h-6.272c-1.342-4.187-4.699-7.438-9.133-7.88v7.88h-.707Z" fill="#F0F0F0"/></svg>
